!!!COM: Palestrina, Giovanni Perluigi da
!!!OPR: Missa Brevis
!!!OMD: Benedictus
!!!OTL: First Section
**kern	**kern	**kern
*Itenor	*Icalto	*Icant
!Tenor	!Altus	!Cantus
*clefGv2	*clefG2	*clefG2
*k[b-]	*k[b-]	*k[b-]
*F:ion	*F:ion	*F:ion
*M4/2	*M4/2	*M4/2
=1	=1	=1
0r	0r	0cc
=2	=2	=2
0r	0r	1dd
.	.	1cc
=3	=3	=3
0r	0f	2a
.	.	2cc
.	.	4dd
.	.	4ee
.	.	4ff
.	.	4dd
=4	=4	=4
0r	1g	2ee
.	.	1dd
.	1f	.
.	.	2cc
=5	=5	=5
0r	2d	2b-
.	2f	2a
.	4g	1g
.	4a	.
.	4b-	.
.	4g	.
=6	=6	=6
0r	2a	2f
.	2.g	2e
.	.	1a
.	4f	.
.	[2f	.
=7	=7	=7
0c	2f]	1g
.	4e	.
.	4d	.
.	4e	2.cc
.	4f	.
.	[2g	.
.	.	4b-
=8	=8	=8
1d	4g]	2a
.	4f	.
.	1f	4g
.	.	4f
1c	.	2g
.	4e	[2cc
.	4d	.
=9	=9	=9
2A	2e	4cc]
.	.	4b-
2c	2A	4a
.	.	4g
4d	2B-	1f
4e	.	.
4f	2d	.
4d	.	.
=10	=10	=10
2e	0c	2g
1f	.	2a
.	.	1g
2e	.	.
=11	=11	=11
1d	2r	1f
.	2f	.
2G	4g	1r
.	4a	.
[2g	4b-	.
.	4g	.
=12	=12	=12
4g]	1.a	0cc
4f	.	.
1f	.	.
2e	2g	.
=13	=13	=13
2.d	2f	0dd
.	1a	.
4c	.	.
1B-	.	.
.	2g	.
=14	=14	=14
2A	1a	1cc
2c	.	.
4d	1r	1a
4e	.	.
4f	.	.
4d	.	.
=15	=15	=15
2e	1r	1cc
2.f	.	.
.	2r	4dd
4e	.	4ee
2d	2f	4ff
.	.	4dd
=16	=16	=16
2c	4g	2ee
.	4a	.
2B-	4b-	1dd
.	4g	.
1f	4a	.
.	4b-	.
.	2a	2cc
=17	=17	=17
1r	2g	2b-
.	1f	2a
1c	.	[1g
.	4e	.
.	4d	.
=18	=18	=18
2c	1e	1g]
2c	.	.
4F	1f	2r
4G	.	.
4A	.	2cc
4B-	.	.
=19	=19	=19
4c	0r	2cc
4d	.	.
4e	.	2cc
4c	.	.
4d	.	4f
4e	.	4g
[2f	.	4a
.	.	4b-
=20	=20	=20
2f]	1r	4cc
.	.	4dd
2e	.	4ee
.	.	4cc
2.f	2r	4dd
.	.	4ee
.	2a	[2ff
4e	.	.
=21	=21	=21
2d	2a	2ff]
2c	2a	2ee
2B-	4d	2dd
.	4e	.
2B-	4f	2dd
.	4g	.
=22	=22	=22
1A	4a	2cc
.	4b-	.
.	4cc	2a
.	4a	.
1r	2.b-	2.dd
.	4a	4cc
=23	=23	=23
1r	2g	2b-
.	1f	2a
1c	.	[1g
.	4e	.
.	4d	.
=24	=24	=24
2c	2e	1g]
2c	2c	.
4F	2c	2r
4G	.	.
4A	2c	2cc
4B-	.	.
=25	=25	=25
4c	1A	2cc
4d	.	.
4e	.	2cc
4c	.	.
4d	2B-	1f
4e	.	.
[2f	2d	.
=26	=26	=26
2f]	1c	2r
2e	.	2cc
2.f	1r	2cc
.	.	2cc
4e	.	.
=27	=27	=27
2d	1a	4f
.	.	4g
4c	.	4a
4B-	.	4b-
4A	2a	4cc
4B-	.	4dd
4c	2a	4ee
4A	.	4cc
=28	=28	=28
2.B-	1d	4dd
.	.	4ee
.	.	2.ff
4c	.	.
2d	2r	.
.	.	4ee
[2B-	2f	[2dd
=29	=29	=29
2B-]	2f	2dd]
2A	2f	2cc
2G	4B-	2b-
.	4c	.
2G	4d	2b-
.	4e	.
=30	=30	=30
1F	4f	1a
.	4g	.
.	4a	.
.	4f	.
1r	4g	2.dd
.	4a	.
.	[2b-	.
.	.	4dd
=31	=31	=31
1f	2b-]	1cc
.	4a	.
.	4g	.
2f	[1a	2r
2f	.	2cc
=32	=32	=32
2F	1a]	2cc
2.f	.	2cc
.	2r	4f
4e	.	4g
2d	2a	4a
.	.	4b-
=33	=33	=33
2c	2a	4cc
.	.	4dd
2A	2a	4ee
.	.	4cc
2B-	4d	2.dd
.	4e	.
2B-	4f	.
.	4g	4ee
=34	=34	=34
1A	4a	2ff
.	4b-	.
.	4cc	2ee
.	4a	.
2r	2.b-	2dd
2d	.	[2ff
.	8a	.
.	8g	.
=35	=35	=35
2d	2a	4ff]
.	.	4ee
2d	2.b-	4dd
.	.	4cc
4G	.	4b-
4A	4a	4cc
4B-	2g	[2dd
4c	.	.
=36	=36	=36
2d	2f	2dd]
2e	2e	1cc
1f	2d	.
.	2d	2b-
=37	=37	=37
1F	2c	1a
.	1f	.
1F	.	1a
.	4e	.
.	4d	.
=38	=38	=38
0c	0e	0g
*-	*-	*-
!!!CDT: 1525/^1526/-1594/2/2
!!!OCY: Italia
!!!AGN: Mass (Free)
!!!AST: renaissance, vocal
!!!ASW: Motet 1532 (Penet)
!!!PWK: Masses, Book 3
!!!RNB: Cadence finals: C
!!!YOR: Le Opere Complete, v. 6, p. 62
!!!YOO: Rome, Italy: Fratelli Scalera
!!!END: 1992//
!!!EED: John Miller
!!!YEC: Copyright 2000, John Miller
!!!YEN: United States of America
!!!YEM: Rights to all derivative electronic formats reserved.
!!!YEM: Refer to licensing agreement for further details.
!!!YEM: This file must be accompanied by the licensing agreement.
!!!YEM: A copy of the licensing agreement may be found at http://www.music-cog.ohio-state.edu/HumdrumDatabases/Palestrina/license.txt
!!!EMD: converted to Humdrum by Bret Aarden
